raws/icons/content/logistics-logo.svg

<svg width="138" height="18" viewBox="0 0 138 18" fill="none" xmlns="http://www.w3.org/2000/svg">
<path d="M0.390625 17.547V1.00738H3.77358V14.6639H10.6333V17.547H0.390625Z" fill="white"/>
<path d="M26.9543 9.27721C26.9543 11.0809 26.6235 12.6153 25.962 13.8805C25.3058 15.1458 24.4099 16.1122 23.2744 16.7798C22.1442 17.4421 20.8733 17.7732 19.4618 17.7732C18.0398 17.7732 16.7637 17.4394 15.6335 16.7717C14.5032 16.1041 13.6099 15.1377 12.9537 13.8725C12.2974 12.6072 11.9692 11.0755 11.9692 9.27721C11.9692 7.47357 12.2974 5.93913 12.9537 4.67389C13.6099 3.40865 14.5032 2.44491 15.6335 1.78268C16.7637 1.11506 18.0398 0.78125 19.4618 0.78125C20.8733 0.78125 22.1442 1.11506 23.2744 1.78268C24.4099 2.44491 25.3058 3.40865 25.962 4.67389C26.6235 5.93913 26.9543 7.47357 26.9543 9.27721ZM23.5244 9.27721C23.5244 8.10888 23.3552 7.12361 23.0166 6.32139C22.6832 5.51918 22.2119 4.91078 21.6025 4.49622C20.9931 4.08165 20.2795 3.87436 19.4618 3.87436C18.644 3.87436 17.9304 4.08165 17.321 4.49622C16.7116 4.91078 16.2377 5.51918 15.8991 6.32139C15.5658 7.12361 15.3991 8.10888 15.3991 9.27721C15.3991 10.4455 15.5658 11.4308 15.8991 12.233C16.2377 13.0352 16.7116 13.6436 17.321 14.0582C17.9304 14.4728 18.644 14.6801 19.4618 14.6801C20.2795 14.6801 20.9931 14.4728 21.6025 14.0582C22.2119 13.6436 22.6832 13.0352 23.0166 12.233C23.3552 11.4308 23.5244 10.4455 23.5244 9.27721Z" fill="white"/>
<path d="M40.0701 6.3537C39.9607 5.96066 39.807 5.6134 39.6091 5.31189C39.4112 5.005 39.169 4.74657 38.8825 4.5366C38.6012 4.32123 38.2783 4.15702 37.9137 4.04396C37.5543 3.93089 37.1559 3.87436 36.7184 3.87436C35.9006 3.87436 35.1818 4.08434 34.562 4.50429C33.9474 4.92424 33.4682 5.53533 33.1244 6.33754C32.7807 7.13438 32.6088 8.10888 32.6088 9.26106C32.6088 10.4132 32.7781 11.3931 33.1166 12.2007C33.4552 13.0083 33.9344 13.6248 34.5542 14.0501C35.174 14.4701 35.9058 14.6801 36.7496 14.6801C37.5153 14.6801 38.1689 14.5401 38.7106 14.2601C39.2575 13.9748 39.6742 13.5736 39.9607 13.0568C40.2524 12.5399 40.3982 11.9288 40.3982 11.2235L41.0857 11.3285H36.9605V8.69574H43.6561V10.7793C43.6561 12.233 43.3593 13.4821 42.7655 14.5266C42.1717 15.5657 41.354 16.3679 40.3123 16.9333C39.2705 17.4932 38.0778 17.7732 36.734 17.7732C35.2339 17.7732 33.9161 17.4313 32.7807 16.7475C31.6452 16.0584 30.7598 15.0812 30.1243 13.8159C29.4941 12.5453 29.179 11.0378 29.179 9.29336C29.179 7.95275 29.3665 6.7575 29.7415 5.70762C30.1217 4.65235 30.653 3.75861 31.3353 3.02638C32.0176 2.29416 32.8119 1.73691 33.7182 1.35465C34.6245 0.972382 35.6063 0.78125 36.6637 0.78125C37.57 0.78125 38.4137 0.918542 39.195 1.19313C39.9763 1.46233 40.669 1.84459 41.2732 2.33992C41.8826 2.83525 42.3801 3.4248 42.7655 4.10857C43.1509 4.78695 43.3983 5.53533 43.5077 6.3537H40.0701Z" fill="white"/>
<path d="M49.5802 1.00738V17.547H46.1973V1.00738H49.5802Z" fill="white"/>
<path d="M61.0436 5.76415C60.9811 5.11268 60.7129 4.60659 60.2389 4.24586C59.7649 3.88513 59.1217 3.70477 58.3091 3.70477C57.757 3.70477 57.2908 3.78553 56.9106 3.94705C56.5304 4.10318 56.2387 4.32123 56.0356 4.6012C55.8377 4.88117 55.7387 5.19883 55.7387 5.55417C55.7283 5.85029 55.7882 6.10872 55.9184 6.32947C56.0538 6.55021 56.2387 6.74135 56.4731 6.90287C56.7075 7.059 56.9783 7.19629 57.2856 7.31474C57.5929 7.42781 57.9211 7.52472 58.2701 7.60548L59.7076 7.96082C60.4056 8.12234 61.0462 8.3377 61.6296 8.6069C62.2129 8.8761 62.7182 9.20722 63.1453 9.60025C63.5724 9.99329 63.9031 10.4563 64.1375 10.9893C64.3771 11.5223 64.4995 12.1334 64.5047 12.8226C64.4995 13.8348 64.2495 14.7124 63.7547 15.4554C63.2651 16.193 62.5567 16.7664 61.6296 17.1756C60.7077 17.5793 59.5956 17.7812 58.2935 17.7812C57.0018 17.7812 55.8767 17.5767 54.9184 17.1675C53.9652 16.7583 53.2204 16.1526 52.6839 15.3504C52.1526 14.5428 51.8739 13.544 51.8479 12.3542H55.1215C55.1579 12.9087 55.3116 13.3717 55.5824 13.7432C55.8585 14.1094 56.2257 14.3866 56.6841 14.5751C57.1476 14.7581 57.6711 14.8497 58.2544 14.8497C58.8274 14.8497 59.3248 14.7635 59.7467 14.5912C60.1738 14.4189 60.5045 14.1793 60.7389 13.8725C60.9733 13.5656 61.0905 13.2129 61.0905 12.8145C61.0905 12.443 60.9837 12.1307 60.7702 11.8777C60.5618 11.6246 60.2545 11.4093 59.8482 11.2316C59.4472 11.0539 58.955 10.8924 58.3716 10.747L56.6294 10.2948C55.2803 9.9556 54.2152 9.42527 53.4339 8.70382C52.6526 7.98236 52.2646 7.01054 52.2698 5.78838C52.2646 4.78695 52.5224 3.91205 53.0433 3.16367C53.5693 2.4153 54.2907 1.83113 55.2074 1.41118C56.1241 0.991226 57.1658 0.78125 58.3326 0.78125C59.5201 0.78125 60.5566 0.991226 61.4421 1.41118C62.3327 1.83113 63.0255 2.4153 63.5203 3.16367C64.0151 3.91205 64.2703 4.77887 64.2859 5.76415H61.0436Z" fill="white"/>
<path d="M66.1708 3.89051V1.00738H79.312V3.89051H74.4133V17.547H71.0694V3.89051H66.1708Z" fill="white"/>
<path d="M84.8591 1.00738V17.547H81.4761V1.00738H84.8591Z" fill="white"/>
<path d="M101.76 6.79788H98.3382C98.2757 6.34024 98.1481 5.93374 97.9553 5.5784C97.7626 5.21767 97.5152 4.91078 97.2131 4.65773C96.911 4.40469 96.5621 4.21086 96.1662 4.07626C95.7756 3.94166 95.3511 3.87436 94.8927 3.87436C94.0646 3.87436 93.3432 4.08703 92.7286 4.51237C92.114 4.93232 91.6374 5.5461 91.2988 6.3537C90.9603 7.15591 90.791 8.13042 90.791 9.27721C90.791 10.4563 90.9603 11.447 91.2988 12.2492C91.6426 13.0514 92.1218 13.6571 92.7364 14.0663C93.351 14.4755 94.062 14.6801 94.8693 14.6801C95.3224 14.6801 95.7417 14.6181 96.1271 14.4943C96.5178 14.3705 96.8642 14.1901 97.1663 13.9532C97.4683 13.7109 97.7184 13.4175 97.9163 13.0729C98.1194 12.7284 98.26 12.3353 98.3382 11.8938L101.76 11.91C101.672 12.6691 101.45 13.4014 101.096 14.1067C100.747 14.8066 100.276 15.4338 99.682 15.9884C99.0934 16.5375 98.3903 16.9736 97.5725 17.2967C96.76 17.6143 95.8407 17.7732 94.8146 17.7732C93.3874 17.7732 92.1113 17.4394 90.9863 16.7717C89.8665 16.1041 88.981 15.1377 88.3299 13.8725C87.6841 12.6072 87.3611 11.0755 87.3611 9.27721C87.3611 7.47357 87.6893 5.93913 88.3456 4.67389C89.0018 3.40865 89.8925 2.44491 91.0175 1.78268C92.1426 1.11506 93.4083 0.78125 94.8146 0.78125C95.7417 0.78125 96.6011 0.91585 97.3928 1.18505C98.1897 1.45425 98.8955 1.84728 99.5101 2.36415C100.125 2.87563 100.625 3.50287 101.01 4.24586C101.401 4.98885 101.651 5.83952 101.76 6.79788Z" fill="white"/>
<path d="M112.866 5.76415C112.804 5.11268 112.535 4.60659 112.061 4.24586C111.587 3.88513 110.944 3.70477 110.132 3.70477C109.58 3.70477 109.113 3.78553 108.733 3.94705C108.353 4.10318 108.061 4.32123 107.858 4.6012C107.66 4.88117 107.561 5.19883 107.561 5.55417C107.551 5.85029 107.611 6.10872 107.741 6.32947C107.876 6.55021 108.061 6.74135 108.296 6.90287C108.53 7.059 108.801 7.19629 109.108 7.31474C109.415 7.42781 109.744 7.52472 110.093 7.60548L111.53 7.96082C112.228 8.12234 112.869 8.3377 113.452 8.6069C114.035 8.8761 114.541 9.20722 114.968 9.60025C115.395 9.99329 115.726 10.4563 115.96 10.9893C116.2 11.5223 116.322 12.1334 116.327 12.8226C116.322 13.8348 116.072 14.7124 115.577 15.4554C115.088 16.193 114.379 16.7664 113.452 17.1756C112.53 17.5793 111.418 17.7812 110.116 17.7812C108.824 17.7812 107.699 17.5767 106.741 17.1675C105.788 16.7583 105.043 16.1526 104.506 15.3504C103.975 14.5428 103.696 13.544 103.67 12.3542H106.944C106.98 12.9087 107.134 13.3717 107.405 13.7432C107.681 14.1094 108.048 14.3866 108.507 14.5751C108.97 14.7581 109.494 14.8497 110.077 14.8497C110.65 14.8497 111.147 14.7635 111.569 14.5912C111.996 14.4189 112.327 14.1793 112.561 13.8725C112.796 13.5656 112.913 13.2129 112.913 12.8145C112.913 12.443 112.806 12.1307 112.593 11.8777C112.384 11.6246 112.077 11.4093 111.671 11.2316C111.27 11.0539 110.778 10.8924 110.194 10.747L108.452 10.2948C107.103 9.9556 106.038 9.42527 105.256 8.70382C104.475 7.98236 104.087 7.01054 104.092 5.78838C104.087 4.78695 104.345 3.91205 104.866 3.16367C105.392 2.4153 106.113 1.83113 107.03 1.41118C107.947 0.991226 108.988 0.78125 110.155 0.78125C111.343 0.78125 112.379 0.991226 113.265 1.41118C114.155 1.83113 114.848 2.4153 115.343 3.16367C115.838 3.91205 116.093 4.77887 116.108 5.76415H112.866Z" fill="white"/>
<path d="M126.867 1.00738L130.093 6.64443H130.218L133.461 1.00738H137.281L132.398 9.27721L137.391 17.547H133.5L130.218 11.9019H130.093L126.812 17.547H122.937L127.945 9.27721L123.031 1.00738H126.867Z" fill="white"/>
</svg>

<svg width="138" height="18" fill="none" xmlns="http://www.w3.org/2000/svg"><path d="M.39 17.547V1.007h3.384v13.657h6.86v2.883H.39zM26.954 9.277c0 1.804-.33 3.338-.992 4.604-.656 1.265-1.552 2.231-2.688 2.899-1.13.662-2.4.993-3.812.993-1.422 0-2.698-.334-3.829-1.001-1.13-.668-2.023-1.634-2.68-2.9-.656-1.265-.984-2.796-.984-4.595 0-1.803.328-3.338.985-4.603.656-1.265 1.55-2.23 2.68-2.891C16.764 1.115 18.04.78 19.462.78c1.411 0 2.682.334 3.812 1.002 1.136.662 2.032 1.626 2.688 2.89.662 1.266.992 2.8.992 4.604zm-3.43 0c0-1.168-.169-2.153-.507-2.956-.334-.802-.805-1.41-1.415-1.825-.609-.414-1.323-.622-2.14-.622-.818 0-1.532.208-2.141.622-.61.415-1.083 1.023-1.422 1.825-.333.803-.5 1.788-.5 2.956s.167 2.154.5 2.956c.339.802.813 1.41 1.422 1.825.61.415 1.323.622 2.14.622.819 0 1.532-.207 2.142-.622.609-.414 1.08-1.023 1.414-1.825.338-.802.507-1.788.507-2.956zM40.07 6.354a3.686 3.686 0 00-.46-1.042 2.899 2.899 0 00-.727-.775 3.077 3.077 0 00-.97-.493 3.97 3.97 0 00-1.195-.17c-.817 0-1.536.21-2.156.63-.615.42-1.094 1.031-1.438 1.834-.343.796-.515 1.77-.515 2.923 0 1.152.17 2.132.508 2.94.338.807.817 1.424 1.437 1.85.62.42 1.352.63 2.196.63.765 0 1.419-.14 1.96-.42a2.954 2.954 0 001.25-1.204c.292-.517.438-1.128.438-1.834l.688.105H36.96V8.697h6.695v2.083c0 1.454-.297 2.703-.89 3.748a6.162 6.162 0 01-2.454 2.406c-1.041.56-2.234.84-3.578.84-1.5 0-2.818-.342-3.953-1.026-1.136-.689-2.021-1.666-2.657-2.931-.63-1.27-.945-2.778-.945-4.523 0-1.34.188-2.535.563-3.585.38-1.056.911-1.95 1.593-2.682a6.881 6.881 0 012.383-1.671A7.501 7.501 0 0136.664.78c.906 0 1.75.138 2.531.412.781.27 1.474.652 2.078 1.147a6.153 6.153 0 012.235 4.014H40.07zM49.58 1.007v16.54h-3.383V1.007h3.383zM61.044 5.764c-.063-.651-.331-1.157-.805-1.518-.474-.36-1.117-.541-1.93-.541-.552 0-1.018.08-1.398.242-.38.156-.672.374-.875.654a1.61 1.61 0 00-.297.953c-.01.296.05.555.18.775.135.221.32.412.554.574.235.156.505.293.813.412.307.113.635.21.984.29l1.438.356a9.908 9.908 0 011.922.646c.583.27 1.088.6 1.515.993.427.393.758.856.992 1.39.24.532.362 1.143.368 1.833-.005 1.012-.255 1.89-.75 2.632-.49.738-1.198 1.311-2.125 1.72-.922.404-2.034.606-3.337.606-1.291 0-2.416-.204-3.375-.613-.953-.41-1.698-1.015-2.234-1.818-.531-.807-.81-1.806-.836-2.996h3.273c.037.555.19 1.018.461 1.39a2.57 2.57 0 001.102.831c.464.183.987.275 1.57.275.573 0 1.07-.086 1.493-.259.427-.172.758-.412.992-.718.234-.307.352-.66.352-1.058 0-.372-.107-.684-.32-.937-.21-.253-.517-.469-.923-.646a9.153 9.153 0 00-1.476-.485l-1.743-.452c-1.349-.34-2.414-.87-3.195-1.591-.781-.722-1.17-1.693-1.164-2.916-.005-1.001.252-1.876.773-2.624.526-.749 1.248-1.333 2.164-1.753.917-.42 1.959-.63 3.126-.63 1.187 0 2.224.21 3.11.63.89.42 1.583 1.004 2.077 1.753.495.748.75 1.615.766 2.6h-3.242zM66.17 3.89V1.008h13.142v2.884h-4.899v13.656H71.07V3.891h-4.898zM84.86 1.007v16.54h-3.384V1.007h3.383zM101.76 6.798h-3.422a3.54 3.54 0 00-.383-1.22 3.08 3.08 0 00-.742-.92 3.234 3.234 0 00-1.047-.582 3.885 3.885 0 00-1.273-.202c-.828 0-1.55.213-2.164.638-.615.42-1.092 1.034-1.43 1.842-.339.802-.508 1.776-.508 2.923 0 1.18.17 2.17.508 2.972.344.802.823 1.408 1.437 1.817.615.41 1.326.614 2.133.614.453 0 .873-.062 1.258-.186.39-.123.737-.304 1.04-.54a3.09 3.09 0 00.75-.881c.202-.345.343-.738.421-1.18l3.422.017a6.547 6.547 0 01-.664 2.197c-.349.7-.82 1.327-1.414 1.881a6.62 6.62 0 01-2.11 1.309c-.812.317-1.731.476-2.757.476-1.428 0-2.704-.334-3.829-1.001-1.12-.668-2.005-1.634-2.656-2.9-.646-1.265-.969-2.796-.969-4.595 0-1.803.328-3.338.985-4.603.656-1.265 1.546-2.23 2.671-2.891C92.144 1.115 93.409.78 94.816.78a7.96 7.96 0 012.578.404c.797.27 1.502.662 2.117 1.18a6.016 6.016 0 011.5 1.88c.391.744.641 1.595.75 2.553zM112.866 5.764c-.062-.651-.331-1.157-.805-1.518-.474-.36-1.117-.541-1.929-.541-.552 0-1.019.08-1.399.242-.38.156-.672.374-.875.654a1.61 1.61 0 00-.297.953c-.01.296.05.555.18.775.135.221.32.412.555.574.234.156.505.293.812.412.307.113.636.21.985.29l1.437.356a9.899 9.899 0 011.922.646c.583.27 1.089.6 1.516.993.427.393.758.856.992 1.39.24.532.362 1.143.367 1.833-.005 1.012-.255 1.89-.75 2.632-.489.738-1.198 1.311-2.125 1.72-.922.404-2.034.606-3.336.606-1.292 0-2.417-.204-3.375-.613-.953-.41-1.698-1.015-2.235-1.818-.531-.807-.81-1.806-.836-2.996h3.274c.036.555.19 1.018.461 1.39.276.365.643.643 1.102.831.463.183.987.275 1.57.275.573 0 1.07-.086 1.492-.259.427-.172.758-.412.992-.718.235-.307.352-.66.352-1.058 0-.372-.107-.684-.32-.937-.209-.253-.516-.469-.922-.646a9.14 9.14 0 00-1.477-.485l-1.742-.452c-1.349-.34-2.414-.87-3.196-1.591-.781-.722-1.169-1.693-1.164-2.916-.005-1.001.253-1.876.774-2.624.526-.749 1.247-1.333 2.164-1.753.917-.42 1.958-.63 3.125-.63 1.188 0 2.224.21 3.11.63.89.42 1.583 1.004 2.078 1.753.495.748.75 1.615.765 2.6h-3.242zM126.867 1.007l3.226 5.637h.125l3.243-5.637h3.82l-4.883 8.27 4.993 8.27H133.5l-3.282-5.645h-.125l-3.281 5.645h-3.875l5.008-8.27-4.914-8.27h3.836z" fill="#fff"/></svg>
